X:105
T:Joe Tanzy's
T:Pat Carney's
T:The Braes of Glendochart/Glendochert
T:Mr Menzies of Culdares
B:Cole's 1000 Fiddle Tunes
Z:Nigel Gatherer
M:4/4
L:1/8
K:D
G|(3FED AF BGAF|EG=cG ECCE|(3FED AF BGAF|Dddc dDDG|
(3FED AF BGAF|EG=cG ECCE|(3FED AF BGAF|Dddc dDD:|
g|fada fdad|eg=cg ecgc|fada fdgd|(3Bcd AG FDDg|
fada fdad|eg=cg ecgc|afge fdec|dBAG FDD:|
<end>
<start>
